X:1
T:Non ti maravigliar
T:Non ti maravigliar
T:Simon de Baldis
T:Source : Primo libro delle villanelle a 3 voci---Venetia---Figlio d'A.Gardano---1574. Editor : André Vierendeels (31/03/16).
T:Notes : Original clefs : C1, C2, C3 Editorial accidentals above the staff "Alla napolitana" Music by composers from Bari, collected by G. de Antiquis
T:©
T:©
C:Simon de Baldis
Z:©
%%score [ 1 2 3 ]
L:1/8
Q:1/4=90
M:4/4
K:F
V:1 treble nm="Soprano 1" snm="S 1"
V:2 treble nm="Soprano 2" snm="S 2"
V:3 treble-8 nm="Tenor" snm="T"
V:1
 c4 c2 c2 | B2 B2 A4 | c8 | B2 A2 G4 |[M:2/4] F4 ::[M:4/4] z2 F2 F4 | F2 F4 F2 | G4 A4 | %8
w: 1)Non ti ma-|ra- vi- gliar|Don-|na s'io can-|to,|1)per- che|can- tan- do|sfo- go,|
w: 2)Il mio can-|tar è piu|d'un|mes- to pian-|to,|2)che si|mai gu- sta'il|tu- o,|
w: 3)Por- cia tu|so- la ti|po-|trai dar van-|to,|3)d'ha- ver|ri- dut- to'in|vi- ta,|
w: 4)Tal che pa-|tro- na mi'a-|ma-|ta tan- *|to,|4)fa che|sia ve- ro'il|can- to,|
 z2 c2 c2 A2 | B2 c2 d4- | d2 c2 B2 A2 | G4 F4- | F4 c4- | c4 d4 | c2 B4 A2 | A2 B2 G4- | G4 c4 | %17
w: per- che can-|tan- do sfo-|1)- go'il mio do-|lo- re,|_ e|_ can-|to'a tut- te|1)l'ho- * re,|_ co-|
w: che si mai|gu- sta'il tu-|2)- o dol- ce|li- quo-|* re,|_ non|giun- ge- r'a|2)quell' ho- re,|_ co-|
w: d'ha- ver ri-|dut- to'in vi-|3)- ta'il ser- vi-|to- re,|_ c'ha-|* vea|fi- ni- to|3)l'ho- * re,|_ co-|
w: fa che sia|ve- ro'il can-|4)- to'ex- te- ri-|o- re,|_ si-|* mil|a quel del|4)co- * re,|_ e|
 c2 c2 B4 | A2 A4 A2 | B2 B2 G4 | F8 :| %21
w: me fa'l Ci-|gno che can-|tan- do mo-|re.|
w: me fa'l Ci-|gno che can-|tan- do mo-|re.|
w: me fa'l Ci-|gno che can-|tan- do mo-|re.|
w: non del Ci-|gno che can-|tan- do mo-|re.|
V:2
 A4 A2 A2 | G2 G2 F4 | A8 | G2 F4 E2 |[M:2/4] F4 ::[M:4/4] z2 D2 D4 | D2 D4 D2 | E4 F4 | %8
w: 1)Non ti ma-|ra- vi- gliar|Don-|na s'io can-|to,|1)per- che|can- tan- do|sfor- go,|
w: 2)Il mio can-|tar è piu|d'un|me- sto pian-|to,|2)che si|mai gu- sta'il|tu- o,|
 z2 A2 A2 F2 | G2 A2 B4- | B2 A2 G2 F2- | F2 E2 F4- | F4 A4- | A4 B4 | A2 G4 F2 | F4 E4- | E4 A4 | %17
w: per- che can-|tan- do sfor-|1)- go'il mio do-|* lo- re,|_ e|_ can-|to'a tut- te|1)l'ho- re,|_ co-|
w: che si mai|gu- sta'il tu-|2)- o dol- ce|_ li- quo-|* re,|_ non|giun- ge- r'a|2)quell' ho-|re, co-|
 A2 A2 G4 | F2 F4 F2 | D2 F4 E2 | F8 :| %21
w: me fa'l Ci-|gno che can-|tan- do mo-|re.|
w: me fa'l Ci-|gno che can-|tan- do mo-|re.|
V:3
 f4 f2 f2 | g2 g2 d4 | f8 | _e2 f2 c4 |[M:2/4] F4 ::[M:4/4] z2 B2 B4 | B2 B4 B2 | c4 F4 | %8
w: 3)Por- cia tu|so- la ti|po-|trai dar van-|to,|3)d'ha- ver|ri- dut- to'in|vi- ta,|
w: 4)Tal che pa-|tro- na mi'a-|ma-|ta tan- *|to,|4)fa che|sia ve- ro'il|can- to,|
 z2 f2 f2 d2 |"^b" e2 f2 B4- | B2 c2 _e2 f2 | c4 F4- | F4 f4- | f4 B4 | c2 _e4 f2 | d4 c4- | %16
w: d'ha- ver ri-|dut- to'in vi-|3)- ta'il ser- vi-|to- re,|_ c'ha-|* vea|fi- ni- to|3)l'ho- re,|
w: che si mai|gu- sta'il tu-|4) to'ex- te- ri-|o- re,|_ si-|* mil|a quel del|4)co- re,|
 c4 f4 | f2 f2 _e4 | d2 d4 d2 | B2 B2 c4 | F8 :| %21
w: _ co-|me fa'l Ci-|gno che can-|tan- do mo-|re.|
w: _ e|non del Ci-|gno che can-|tan- do mo-|re.|

